**kern	**silbe	**kern	**silbe	**harmony	**phrase	**leadinstrument	**rhyme	**timestamp	**harte
*ICvox	*	*ICvox	*	*M4/4	*	*	*	*	*M4/4
*VRlead	*	*VRharmonize,*VRbacking	*	*	*	*	*	*	*
*Hstimme	*	*Nstimme	*	*	*	*	*	*	*
*B-:	*	*B-:	*	*B-:	*	*	*	*	*B-:
*M4/4	*	*M4/4	*	*	*	*	*	*	*
*clefF4	*	*clefF4	*	*	*	*	*	*	*
r;	.	1r	.	1r;	.	r	.	0	N.C.
r;	.	1r	.	1r;	.	r	.	0.464	N.C.
=1	=1	=1	=1	=1	=1	=1	=1	=1	=1
1r	.	1r	.	1FMm	.	r	.	1.74	F:7
=2	=2	=2	=2	=2	=2	=2	=2	=2	=2
1r	.	1r	.	1FMm	.	r	.	3.015	F:7
=3	=3	=3	=3	=3	=3	=3	=3	=3	=3
1r	.	1r	.	1B-M	.	r	.	4.29	B-:maj
=4	=4	=4	=4	=4	=4	=4	=4	=4	=4
1r	.	1r	.	1B-M	.	r	.	5.566	B-:maj
=5	=5	=5	=5	=5	=5	=5	=5	=5	=5
*>Letter>A	*>Letter>A	*>Letter>A	*>Letter>A	*>Letter>A	*>Letter>A	*>Letter>A	*>Letter>A	*>Letter>A	*>Letter>A
*>Label>Verse	*>Label>Verse	*>Label>Verse	*>Label>Verse	*>Label>Verse	*>Label>Verse	*>Label>Verse	*>Label>Verse	*>Label>Verse	*>Label>Verse
4D	You've	1r	.	1B-M	newline	voice	.	6.841	B-:maj
8D	cut	.	.	.	.	.	.	.	.
[8D	out	.	.	.	.	.	.	.	.
4D]	_	.	.	.	.	.	.	.	.
8C	your	.	.	.	.	.	.	.	.
[8C	dan	.	.	.	.	.	.	.	.
=6	=6	=6	=6	=6	=6	=6	=6	=6	=6
8C]	_	1r	.	1B-M	.	voice	.	8.161	B-:maj
8BB-	cing,	.	.	.	.	.	.	.	.
4r	.	.	.	.	.	.	.	.	.
8r	.	.	.	.	.	.	.	.	.
[8D	and	.	.	.	.	.	.	.	.
8D]	_	.	.	.	.	.	.	.	.
8D	you	.	.	.	.	.	.	.	.
=7	=7	=7	=7	=7	=7	=7	=7	=7	=7
8E-	ne-	1r	.	1FMm	.	voice	.	9.481	F:7
[8E-	-ver	.	.	.	.	.	.	.	.
4E-]	_	.	.	.	.	.	.	.	.
8E-	see	.	.	.	.	.	.	.	.
[8D	a	.	.	.	.	.	.	.	.
8D]	_	.	.	.	.	.	.	.	.
[8C	show	.	.	.	.	.	A	.	.
=8	=8	=8	=8	=8	=8	=8	=8	=8	=8
8C]	_	1r	.	1FMm	.	voice	.	10.801	F:7
8r	.	.	.	.	.	.	.	.	.
4r	.	.	.	.	.	.	.	.	.
4r	.	.	.	.	.	.	.	.	.
8D	Your	.	.	.	.	.	.	.	.
[8E-	friends	.	.	.	.	.	.	.	.
=9	=9	=9	=9	=9	=9	=9	=9	=9	=9
4E-]	_	1r	.	1FMm	newline	voice	.	12.12	F:7
4E-	come	.	.	.	.	.	.	.	.
4.E-	by	.	.	.	.	.	.	.	.
8D	to	.	.	.	.	.	.	.	.
=10	=10	=10	=10	=10	=10	=10	=10	=10	=10
4D	pick	1r	.	1FMm	.	voice	.	13.426	F:7
8C	you	.	.	.	.	.	.	.	.
[8C	up,	.	.	.	.	.	.	.	.
8C]	_	.	.	.	.	.	.	.	.
[8D	and	.	.	.	.	.	.	.	.
8D]	_	.	.	.	.	.	.	.	.
8E-	you	.	.	.	.	.	.	.	.
=11	=11	=11	=11	=11	=11	=11	=11	=11	=11
[4F	hard	1r	.	1B-M	.	voice	.	14.733	B-:maj
8F]	_	.	.	.	.	.	.	.	.
8G	ly	.	.	.	.	.	.	.	.
8F	e-	.	.	.	.	.	.	.	.
[8E-	-ver	.	.	.	.	.	.	.	.
8E-]	_	.	.	.	.	.	.	.	.
[8D	go	.	.	.	.	.	A	.	.
=12	=12	=12	=12	=12	=12	=12	=12	=12	=12
4D]	_	1r	.	1B-M	.	voice	.	16.039	B-:maj
4r	.	.	.	.	.	.	.	.	.
4r	.	.	.	.	.	.	.	.	.
8F	It	.	.	.	.	.	.	.	.
[8G	seems	.	.	.	.	.	.	.	.
=13	=13	=13	=13	=13	=13	=13	=13	=13	=13
4G]	_	1r	.	1E-M	newline	voice	.	17.345	E-:maj
4F#	your	.	.	.	.	.	.	.	.
4G	head	.	.	.	.	.	.	.	.
8A	is	.	.	.	.	.	.	.	.
[8B-	in	.	.	.	.	.	.	.	.
=14	=14	=14	=14	=14	=14	=14	=14	=14	=14
4B-]	_	1r	.	1E-M	.	voice	.	18.665	E-:maj
8B-	the	.	.	.	.	.	.	.	.
[8A	clouds	.	.	.	.	.	.	.	.
4A]	_	.	.	.	.	.	.	.	.
8G	a-	.	.	.	.	.	.	.	.
[8F	-bove	.	.	.	.	.	B	.	.
=15	=15	=15	=15	=15	=15	=15	=15	=15	=15
2.F]	.	1r	.	1B-M	.	voice	.	19.986	B-:maj
4r	.	.	.	.	.	.	.	.	.
=16	=16	=16	=16	=16	=16	=16	=16	=16	=16
4r	.	1r	.	1B-M	.	voice	.	21.306	B-:maj
4AA	you've	.	.	.	.	.	.	.	.
4BB-	got	.	.	.	.	.	.	.	.
8C	the	.	.	.	.	.	.	.	.
[8D	ways	.	.	.	.	.	.	.	.
=17	=17	=17	=17	=17	=17	=17	=17	=17	=17
2.D_	_	4r	.	1B-M	newline	voice	.	22.627	B-:maj
.	.	4BB-	(you've	.	.	.	.	.	.
.	.	4AA	got	.	.	.	.	.	.
8D]	_	4GG	the	.	.	.	.	.	.
8r	.	.	.	.	.	.	.	.	.
=18	=18	=18	=18	=18	=18	=18	=18	=18	=18
4r	.	2FF	ways)	1FMm	.	voice	.	23.955	F:7
8FF	of	.	.	.	.	.	.	.	.
8FF	a	.	.	.	.	.	.	.	.
8AA	wo-	2r	.	.	.	.	.	.	.
8AA	-man	.	.	.	.	.	.	.	.
4C	in	.	.	.	.	.	.	.	.
=19	=19	=19	=19	=19	=19	=19	=19	=19	=19
2BB-	love.	2r	.	1B-M	.	voice	B	25.282	B-:maj
2r	.	2BB-	(In	.	.	.	.	.	.
=20	=20	=20	=20	=20	=20	=20	=20	=20	=20
1r	.	2BB-	love...)	1B-M	.	voice	.	26.61	B-:maj
.	.	2r	.	.	.	.	.	.	.
=21	=21	=21	=21	=21	=21	=21	=21	=21	=21
*>Letter>A	*>Letter>A	*>Letter>A	*>Letter>A	*>Letter>A	*>Letter>A	*>Letter>A	*>Letter>A	*>Letter>A	*>Letter>A
*>Label>Verse	*>Label>Verse	*>Label>Verse	*>Label>Verse	*>Label>Verse	*>Label>Verse	*>Label>Verse	*>Label>Verse	*>Label>Verse	*>Label>Verse
8D	I	1r	.	1B-M	newline	voice	.	27.938	B-:maj
[8D	walked	.	.	.	.	.	.	.	.
4D]	_	.	.	.	.	.	.	.	.
4D	by	.	.	.	.	.	.	.	.
8C	your	.	.	.	.	.	.	.	.
[8C	house	.	.	.	.	.	.	.	.
=22	=22	=22	=22	=22	=22	=22	=22	=22	=22
4C]	_	1r	.	1B-M	.	voice	.	29.266	B-:maj
8BB-	to-	.	.	.	.	.	.	.	.
[8BB-	-night	.	.	.	.	.	C	.	.
8BB-]	_	.	.	.	.	.	.	.	.
4.D	and	.	.	.	.	.	.	.	.
=23	=23	=23	=23	=23	=23	=23	=23	=23	=23
4E-	hoped	1r	.	1FMm	.	voice	.	30.594	F:7
8E-	that	.	.	.	.	.	.	.	.
[8E-	I	.	.	.	.	.	.	.	.
4E-]	_	.	.	.	.	.	.	.	.
8D	might	.	.	.	.	.	C	.	.
[8C	see	.	.	.	.	.	D	.	.
=24	=24	=24	=24	=24	=24	=24	=24	=24	=24
4C]	.	1r	.	1FMm	.	voice	.	31.922	F:7
4r	.	.	.	.	.	.	.	.	.
4r	.	.	.	.	.	.	.	.	.
8D	the	.	.	.	.	.	.	.	.
[8E-	guy	.	.	.	.	.	.	.	.
=25	=25	=25	=25	=25	=25	=25	=25	=25	=25
4E-]	_	1r	.	1FMm	newline	voice	.	33.25	F:7
4E-	who's	.	.	.	.	.	.	.	.
8E-	got	.	.	.	.	.	.	.	.
[8D	you	.	.	.	.	.	.	.	.
8D]	_	.	.	.	.	.	.	.	.
[8D	in	.	.	.	.	.	E	.	.
=26	=26	=26	=26	=26	=26	=26	=26	=26	=26
4D]	_	1r	.	1FMm	.	voice	.	34.568	F:7
4C	a	.	.	.	.	.	.	.	.
4C	spin,	.	.	.	.	.	E	.	.
8E-	I	.	.	.	.	.	.	.	.
[8F	wish	.	.	.	.	.	.	.	.
=27	=27	=27	=27	=27	=27	=27	=27	=27	=27
4F]	_	1r	.	1B-M	.	voice	.	35.887	B-:maj
4F	that	.	.	.	.	.	.	.	.
4F	guy	.	.	.	.	.	.	.	.
4E-	was	.	.	.	.	.	.	.	.
=28	=28	=28	=28	=28	=28	=28	=28	=28	=28
4D	me!	1r	.	1B-M	.	voice	D	37.205	B-:maj
4r	.	.	.	.	.	.	.	.	.
4r	.	.	.	.	.	.	.	.	.
8F	I	.	.	.	.	.	.	.	.
[8G	don't	.	.	.	.	.	.	.	.
=29	=29	=29	=29	=29	=29	=29	=29	=29	=29
4G]	_	1r	.	1E-M	newline	voice	.	38.523	E-:maj
4G	know	.	.	.	.	.	.	.	.
4G	why	.	.	.	.	.	.	.	.
8G	it's	.	.	.	.	.	.	.	.
[8G	you	.	.	.	.	.	.	.	.
=30	=30	=30	=30	=30	=30	=30	=30	=30	=30
8G]	_	1r	.	1E-M	.	voice	.	39.855	E-:maj
[8G	I'm	.	.	.	.	.	.	.	.
4G]	_	.	.	.	.	.	.	.	.
4F	drea-	.	.	.	.	.	.	.	.
8E-	-ming	.	.	.	.	.	.	.	.
[8F	of	.	.	.	.	.	B	.	.
=31	=31	=31	=31	=31	=31	=31	=31	=31	=31
2.F]	.	1r	.	1B-M	.	voice	.	41.188	B-:maj
4r	.	.	.	.	.	.	.	.	.
=32	=32	=32	=32	=32	=32	=32	=32	=32	=32
4r	.	1r	.	1B-M	.	voice	.	42.52	B-:maj
4AA	you've	.	.	.	.	.	.	.	.
4BB-	got	.	.	.	.	.	.	.	.
8C	the	.	.	.	.	.	.	.	.
8D	ways	.	.	.	.	.	.	.	.
=33	=33	=33	=33	=33	=33	=33	=33	=33	=33
[2.D	_	4r	.	1B-M	newline	voice	.	43.852	B-:maj
.	.	4BB-	(you've	.	.	.	.	.	.
.	.	4AA	got	.	.	.	.	.	.
8D]	_	4GG	the	.	.	.	.	.	.
8r	.	.	.	.	.	.	.	.	.
=34	=34	=34	=34	=34	=34	=34	=34	=34	=34
4r	.	2FF	ways)	1FMm	.	voice	.	45.171	F:7
8FF	of	.	.	.	.	.	.	.	.
8FF	a	.	.	.	.	.	.	.	.
8AA	wo-	2r	.	.	.	.	.	.	.
8AA	-man	.	.	.	.	.	.	.	.
4C	in	.	.	.	.	.	.	.	.
=35	=35	=35	=35	=35	=35	=35	=35	=35	=35
2BB-	love.	2r	.	1B-M	.	voice	B	46.49	B-:maj
2r	.	2BB-	(In	.	.	.	.	.	.
=36	=36	=36	=36	=36	=36	=36	=36	=36	=36
1r	.	2BB-	love...)	1B-M	.	voice	.	47.808	B-:maj
.	.	2r	.	.	.	.	.	.	.
=37	=37	=37	=37	=37	=37	=37	=37	=37	=37
*>Letter>B	*>Letter>B	*>Letter>B	*>Letter>B	*>Letter>B	*>Letter>B	*>Letter>B	*>Letter>B	*>Letter>B	*>Letter>B
*>Label>Bridge	*>Label>Bridge	*>Label>Bridge	*>Label>Bridge	*>Label>Bridge	*>Label>Bridge	*>Label>Bridge	*>Label>Bridge	*>Label>Bridge	*>Label>Bridge
8G	Ma-	1r	.	1E-M	newline	voice	.	49.127	E-:maj
[8G	-ny	.	.	.	.	.	.	.	.
4G]	_	.	.	.	.	.	.	.	.
4G	is	.	.	.	.	.	.	.	.
8A	the	.	.	.	.	.	.	.	.
[8B-	night	.	.	.	.	.	C	.	.
=38	=38	=38	=38	=38	=38	=38	=38	=38	=38
2B-_	_	1r	.	1E-M	.	voice	.	50.438	E-:maj
8B-]	_	.	.	.	.	.	.	.	.
[8G	I've	.	.	.	.	.	.	.	.
4G]	_	.	.	.	.	.	.	.	.
=39	=39	=39	=39	=39	=39	=39	=39	=39	=39
4F	stayed	1r	.	1B-M	.	voice	.	51.748	B-:maj
8F	a-	.	.	.	.	.	.	.	.
[8F	-wake	.	.	.	.	.	.	.	.
8F]	_	.	.	.	.	.	.	.	.
[8D	and	.	.	.	.	.	.	.	.
4D]	_	.	.	.	.	.	.	.	.
=40	=40	=40	=40	=40	=40	=40	=40	=40	=40
[4F	cried	1r	.	1B-M	.	voice	C	53.059	B-:maj
8F]	.	.	.	.	.	.	.	.	.
8r	.	.	.	.	.	.	.	.	.
2r	.	.	.	.	.	.	.	.	.
=41	=41	=41	=41	=41	=41	=41	=41	=41	=41
4G	Now	1r	.	1E-M	newline	voice	.	54.369	E-:maj
4G	you'll	.	.	.	.	.	.	.	.
8G	ne-	.	.	.	.	.	.	.	.
[8A	-ver	.	.	.	.	.	.	.	.
8A]	_	.	.	.	.	.	.	.	.
[8B-	know	.	.	.	.	.	.	.	.
=42	=42	=42	=42	=42	=42	=42	=42	=42	=42
8B-]	_	1r	.	1E-M	.	voice	.	55.692	E-:maj
[8B-	how	.	.	.	.	.	.	.	.
8B-]	_	.	.	.	.	.	.	.	.
[8A	much	.	.	.	.	.	.	.	.
8A]	_	.	.	.	.	.	.	.	.
[8G	you	.	.	.	.	.	.	.	.
8G]	_	.	.	.	.	.	.	.	.
[8F	hurt	.	.	.	.	.	.	.	.
=43	=43	=43	=43	=43	=43	=43	=43	=43	=43
4F]	_	1r	.	1B-M	.	voice	.	57.015	B-:maj
4F	my	.	.	.	.	.	.	.	.
4E-	foo-	.	.	.	.	.	.	.	.
4D	-lish	.	.	.	.	.	.	.	.
=44	=44	=44	=44	=44	=44	=44	=44	=44	=44
2.C	pride...	1r	.	1FMm	.	voice	C	58.337	F:7
4r	.	.	.	.	.	.	.	.	.
=45	=45	=45	=45	=45	=45	=45	=45	=45	=45
1r	.	1r	.	1FMm	.	voice	.	59.66	F:7
=46	=46	=46	=46	=46	=46	=46	=46	=46	=46
*>Letter>A	*>Letter>A	*>Letter>A	*>Letter>A	*>Letter>A	*>Letter>A	*>Letter>A	*>Letter>A	*>Letter>A	*>Letter>A
*>Label>Verse	*>Label>Verse	*>Label>Verse	*>Label>Verse	*>Label>Verse	*>Label>Verse	*>Label>Verse	*>Label>Verse	*>Label>Verse	*>Label>Verse
4D	I	1r	.	1B-M	newline	voice	.	60.982	B-:maj
8D	re-	.	.	.	.	.	.	.	.
[8D	-call	.	.	.	.	.	.	.	.
4D]	_	.	.	.	.	.	.	.	.
4C	your	.	.	.	.	.	.	.	.
=47	=47	=47	=47	=47	=47	=47	=47	=47	=47
8C	kis-	1r	.	1B-M	.	voice	.	62.311	B-:maj
[8BB-	-ses,	.	.	.	.	.	.	.	.
4BB-]	_	.	.	.	.	.	.	.	.
4r	.	.	.	.	.	.	.	.	.
8D	the	.	.	.	.	.	.	.	.
[8E-	times	.	.	.	.	.	.	.	.
=48	=48	=48	=48	=48	=48	=48	=48	=48	=48
4E-]	_	1r	.	1FMm	.	voice	.	63.64	F:7
4E-	I	.	.	.	.	.	.	.	.
4E-	held	.	.	.	.	.	.	.	.
8D	you	.	.	.	.	.	.	.	.
[8C	tight,	.	.	.	.	.	C	.	.
=49	=49	=49	=49	=49	=49	=49	=49	=49	=49
4C]	_	1r	.	1FMm	.	voice	.	64.97	F:7
4r	.	.	.	.	.	.	.	.	.
4r	.	.	.	.	.	.	.	.	.
4D	now	.	.	.	.	.	.	.	.
=50	=50	=50	=50	=50	=50	=50	=50	=50	=50
8E-	when	1r	.	1FMm	newline	voice	.	66.299	F:7
[8E-	I	.	.	.	.	.	.	.	.
4E-]	_	.	.	.	.	.	.	.	.
4.E-	come	.	.	.	.	.	.	.	.
8D	to	.	.	.	.	.	.	.	.
=51	=51	=51	=51	=51	=51	=51	=51	=51	=51
8D	see	1r	.	1FMm	.	voice	.	67.617	F:7
[8C	you,	.	.	.	.	.	.	.	.
4C]	_	.	.	.	.	.	.	.	.
4r	.	.	.	.	.	.	.	.	.
4E-	you're	.	.	.	.	.	.	.	.
=52	=52	=52	=52	=52	=52	=52	=52	=52	=52
8F	sit-	1r	.	1B-M	.	voice	.	68.935	B-:maj
[8F	-ting	.	.	.	.	.	.	.	.
8F]	_	.	.	.	.	.	.	.	.
[8F	in	.	.	.	.	.	.	.	.
4F]	_	.	.	.	.	.	.	.	.
8E-	the	.	.	.	.	.	.	.	.
[8D	light	.	.	.	.	.	C	.	.
=53	=53	=53	=53	=53	=53	=53	=53	=53	=53
4D]	_	1r	.	1B-M	.	voice	.	70.253	B-:maj
4r	.	.	.	.	.	.	.	.	.
2r	.	.	.	.	.	.	.	.	.
=54	=54	=54	=54	=54	=54	=54	=54	=54	=54
8G	Mis-	1r	.	1E-M	newline	voice	.	71.571	E-:maj
[8G	-sing	.	.	.	.	.	.	.	.
8G]	_	.	.	.	.	.	.	.	.
[8G	all	.	.	.	.	.	.	.	.
4G]	_	.	.	.	.	.	.	.	.
8G	the	.	.	.	.	.	.	.	.
[8G	things	.	.	.	.	.	.	.	.
=55	=55	=55	=55	=55	=55	=55	=55	=55	=55
4G]	_	1r	.	1E-M	.	voice	.	72.895	E-:maj
8G	that	.	.	.	.	.	.	.	.
[8F	we	.	.	.	.	.	.	.	.
4F]	_	.	.	.	.	.	.	.	.
4E-	dreamed	.	.	.	.	.	.	.	.
=56	=56	=56	=56	=56	=56	=56	=56	=56	=56
1F	of...	1r	.	1B-M	.	voice	B	74.218	B-:maj
=57	=57	=57	=57	=57	=57	=57	=57	=57	=57
4r	.	1r	.	1B-M	.	voice	.	75.541	B-:maj
4AA	you've	.	.	.	.	.	.	.	.
4BB-	got	.	.	.	.	.	.	.	.
8C	the	.	.	.	.	.	.	.	.
8D	ways	.	.	.	.	.	.	.	.
=58	=58	=58	=58	=58	=58	=58	=58	=58	=58
[2.D	_	4r	.	1B-M	newline	voice	.	76.865	B-:maj
.	.	4BB-	(you've	.	.	.	.	.	.
.	.	4AA	got	.	.	.	.	.	.
8D]	_	4GG	the	.	.	.	.	.	.
8r	.	.	.	.	.	.	.	.	.
=59	=59	=59	=59	=59	=59	=59	=59	=59	=59
4r	.	2FF	ways)	1FMm	.	voice	.	78.191	F:7
8FF	of	.	.	.	.	.	.	.	.
8FF	a	.	.	.	.	.	.	.	.
8AA	wo-	2r	.	.	.	.	.	.	.
8AA	-man	.	.	.	.	.	.	.	.
4C	in	.	.	.	.	.	.	.	.
=60	=60	=60	=60	=60	=60	=60	=60	=60	=60
2BB-	love.	2r	.	1B-M	.	voice	B	79.517	B-:maj
2r	.	2BB-	(In	.	.	.	.	.	.
=61	=61	=61	=61	=61	=61	=61	=61	=61	=61
1r	.	2BB-	love...)	1B-M	.	voice	.	80.844	B-:maj
.	.	2r	.	.	.	.	.	.	.
=62	=62	=62	=62	=62	=62	=62	=62	=62	=62
*>Letter>A2	*>Letter>A2	*>Letter>A2	*>Letter>A2	*>Letter>A2	*>Letter>A2	*>Letter>A2	*>Letter>A2	*>Letter>A2	*>Letter>A2
*>Label>Solo	*>Label>Solo	*>Label>Solo	*>Label>Solo	*>Label>Solo	*>Label>Solo	*>Label>Solo	*>Label>Solo	*>Label>Solo	*>Label>Solo
1r	.	1r	.	1E-M	newline	piano	.	82.17	E-:maj
=63	=63	=63	=63	=63	=63	=63	=63	=63	=63
1r	.	1r	.	1E-M	.	piano	.	83.479	E-:maj
=64	=64	=64	=64	=64	=64	=64	=64	=64	=64
1r	.	1r	.	1B-M	.	piano	.	84.787	B-:maj
=65	=65	=65	=65	=65	=65	=65	=65	=65	=65
1r	.	1r	.	1B-M	.	piano	.	86.096	B-:maj
=66	=66	=66	=66	=66	=66	=66	=66	=66	=66
1r	.	1r	.	1B-M	newline	piano	.	87.405	B-:maj
=67	=67	=67	=67	=67	=67	=67	=67	=67	=67
1r	.	1r	.	1FMm	.	piano	.	88.726	F:7
=68	=68	=68	=68	=68	=68	=68	=68	=68	=68
1r	.	1r	.	1B-M	.	piano	.	90.048	B-:maj
=69	=69	=69	=69	=69	=69	=69	=69	=69	=69
1r	.	1r	.	1B-M	.	piano	.	91.369	B-:maj
=70	=70	=70	=70	=70	=70	=70	=70	=70	=70
*>Letter>B	*>Letter>B	*>Letter>B	*>Letter>B	*>Letter>B	*>Letter>B	*>Letter>B	*>Letter>B	*>Letter>B	*>Letter>B
*>Label>Bridge	*>Label>Bridge	*>Label>Bridge	*>Label>Bridge	*>Label>Bridge	*>Label>Bridge	*>Label>Bridge	*>Label>Bridge	*>Label>Bridge	*>Label>Bridge
8G	Ma-	1r	.	1E-M	newline	voice	.	92.691	E-:maj
[8G	-ny	.	.	.	.	.	.	.	.
4G]	_	.	.	.	.	.	.	.	.
4G	is	.	.	.	.	.	.	.	.
8A	the	.	.	.	.	.	.	.	.
[8B-	night	.	.	.	.	.	C	.	.
=71	=71	=71	=71	=71	=71	=71	=71	=71	=71
2B-_	_	1r	.	1E-M	.	voice	.	94.027	E-:maj
8B-]	_	.	.	.	.	.	.	.	.
[8G	I've	.	.	.	.	.	.	.	.
4G]	_	.	.	.	.	.	.	.	.
=72	=72	=72	=72	=72	=72	=72	=72	=72	=72
4F	stayed	1r	.	1B-M	.	voice	.	95.364	B-:maj
8F	a-	.	.	.	.	.	.	.	.
[8F	-wake	.	.	.	.	.	.	.	.
8F]	_	.	.	.	.	.	.	.	.
8E-	and	.	.	.	.	.	.	.	.
4D	_	.	.	.	.	.	.	.	.
=73	=73	=73	=73	=73	=73	=73	=73	=73	=73
4.F	cried	1r	.	1B-M	.	voice	C	96.701	B-:maj
8r	.	.	.	.	.	.	.	.	.
2r	.	.	.	.	.	.	.	.	.
=74	=74	=74	=74	=74	=74	=74	=74	=74	=74
4G	Now	1r	.	1E-M	newline	voice	.	98.038	E-:maj
4G	you'll	.	.	.	.	.	.	.	.
8G	ne-	.	.	.	.	.	.	.	.
[8A	-ver	.	.	.	.	.	.	.	.
8A]	_	.	.	.	.	.	.	.	.
[8B-	know	.	.	.	.	.	.	.	.
=75	=75	=75	=75	=75	=75	=75	=75	=75	=75
8B-]	_	1r	.	1E-M	.	voice	.	99.36	E-:maj
[8B-	how	.	.	.	.	.	.	.	.
8B-]	_	.	.	.	.	.	.	.	.
[8A	much	.	.	.	.	.	.	.	.
8A]	_	.	.	.	.	.	.	.	.
[8G	you	.	.	.	.	.	.	.	.
8G]	_	.	.	.	.	.	.	.	.
[8F	hurt	.	.	.	.	.	.	.	.
=76	=76	=76	=76	=76	=76	=76	=76	=76	=76
4F]	_	1r	.	1B-M	.	voice	.	100.681	B-:maj
4F	my	.	.	.	.	.	.	.	.
4E-	foo-	.	.	.	.	.	.	.	.
4D	-lish	.	.	.	.	.	.	.	.
=77	=77	=77	=77	=77	=77	=77	=77	=77	=77
1C	pride...	1r	.	1FMm	.	voice	C	102.003	F:7
=78	=78	=78	=78	=78	=78	=78	=78	=78	=78
1r	.	1r	.	1FMm	.	voice	.	103.325	F:7
=79	=79	=79	=79	=79	=79	=79	=79	=79	=79
*>Letter>A	*>Letter>A	*>Letter>A	*>Letter>A	*>Letter>A	*>Letter>A	*>Letter>A	*>Letter>A	*>Letter>A	*>Letter>A
*>Label>Verse	*>Label>Verse	*>Label>Verse	*>Label>Verse	*>Label>Verse	*>Label>Verse	*>Label>Verse	*>Label>Verse	*>Label>Verse	*>Label>Verse
4D	I	1r	.	1B-M	newline	voice	.	104.647	B-:maj
8D	re-	.	.	.	.	.	.	.	.
[8D	-call	.	.	.	.	.	.	.	.
4D]	_	.	.	.	.	.	.	.	.
4C	your	.	.	.	.	.	.	.	.
=80	=80	=80	=80	=80	=80	=80	=80	=80	=80
8C	kis-	1r	.	1B-M	.	voice	.	105.965	B-:maj
[8BB-	-ses,	.	.	.	.	.	.	.	.
4BB-]	_	.	.	.	.	.	.	.	.
4r	.	.	.	.	.	.	.	.	.
8D	the	.	.	.	.	.	.	.	.
[8E-	times	.	.	.	.	.	.	.	.
=81	=81	=81	=81	=81	=81	=81	=81	=81	=81
4E-]	_	1r	.	1FMm	.	voice	.	107.284	F:7
4E-	I	.	.	.	.	.	.	.	.
4E-	held	.	.	.	.	.	.	.	.
8D	you	.	.	.	.	.	.	.	.
[8C	tight,	.	.	.	.	.	C	.	.
=82	=82	=82	=82	=82	=82	=82	=82	=82	=82
4C]	_	1r	.	1FMm	.	voice	.	108.603	F:7
4r	.	.	.	.	.	.	.	.	.
4r	.	.	.	.	.	.	.	.	.
4D	now	.	.	.	.	.	.	.	.
=83	=83	=83	=83	=83	=83	=83	=83	=83	=83
8E-	when	1r	.	1FMm	newline	voice	.	109.921	F:7
[8E-	I	.	.	.	.	.	.	.	.
4E-]	_	.	.	.	.	.	.	.	.
4.E-	come	.	.	.	.	.	.	.	.
8D	to	.	.	.	.	.	.	.	.
=84	=84	=84	=84	=84	=84	=84	=84	=84	=84
8D	see	1r	.	1FMm	.	voice	.	111.262	F:7
[8C	you,	.	.	.	.	.	.	.	.
4C]	_	.	.	.	.	.	.	.	.
4r	.	.	.	.	.	.	.	.	.
4E-	you're	.	.	.	.	.	.	.	.
=85	=85	=85	=85	=85	=85	=85	=85	=85	=85
8F	sit-	1r	.	1B-M	.	voice	.	112.603	B-:maj
[8F	-ting	.	.	.	.	.	.	.	.
8F]	_	.	.	.	.	.	.	.	.
[8F	in	.	.	.	.	.	.	.	.
4F]	_	.	.	.	.	.	.	.	.
8E-	the	.	.	.	.	.	.	.	.
[8D	light	.	.	.	.	.	C	.	.
=86	=86	=86	=86	=86	=86	=86	=86	=86	=86
4D]	_	1r	.	1B-M	.	voice	.	113.944	B-:maj
4r	.	.	.	.	.	.	.	.	.
2r	.	.	.	.	.	.	.	.	.
=87	=87	=87	=87	=87	=87	=87	=87	=87	=87
8G	Mis-	1r	.	1E-M	newline	voice	.	115.285	E-:maj
[8G	-sing	.	.	.	.	.	.	.	.
8G]	_	.	.	.	.	.	.	.	.
[8G	all	.	.	.	.	.	.	.	.
4G]	_	.	.	.	.	.	.	.	.
8G	the	.	.	.	.	.	.	.	.
[8G	things	.	.	.	.	.	.	.	.
=88	=88	=88	=88	=88	=88	=88	=88	=88	=88
4G]	_	1r	.	1E-M	.	voice	.	116.604	E-:maj
8G	that	.	.	.	.	.	.	.	.
[8F	we	.	.	.	.	.	.	.	.
4F]	_	.	.	.	.	.	.	.	.
4E-	dreamed	.	.	.	.	.	.	.	.
=89	=89	=89	=89	=89	=89	=89	=89	=89	=89
1F	of...	1r	.	1B-M	.	voice	B	117.922	B-:maj
=90	=90	=90	=90	=90	=90	=90	=90	=90	=90
4r	.	1r	.	1B-M	.	voice	.	119.241	B-:maj
4AA	You've	.	.	.	.	.	.	.	.
4BB-	got	.	.	.	.	.	.	.	.
8C	the	.	.	.	.	.	.	.	.
8D	ways	.	.	.	.	.	.	.	.
=91	=91	=91	=91	=91	=91	=91	=91	=91	=91
[2.D	_	4r	.	1B-M	newline	voice	.	120.559	B-:maj
.	.	4BB-	(you've	.	.	.	.	.	.
.	.	4AA	got	.	.	.	.	.	.
8D]	_	4GG	the	.	.	.	.	.	.
8r	.	.	.	.	.	.	.	.	.
=92	=92	=92	=92	=92	=92	=92	=92	=92	=92
4r	.	2FF	ways)	1FMm	.	voice	.	121.885	F:7
8FF	of	.	.	.	.	.	.	.	.
8FF	a	.	.	.	.	.	.	.	.
8AA	wo-	2r	.	.	.	.	.	.	.
8AA	-man	.	.	.	.	.	.	.	.
4C	in	.	.	.	.	.	.	.	.
=93	=93	=93	=93	=93	=93	=93	=93	=93	=93
2BB-	love.	2r	.	1B-M	.	voice	B	123.212	B-:maj
2r	.	2BB-	(In	.	.	.	.	.	.
=94	=94	=94	=94	=94	=94	=94	=94	=94	=94
4r	.	2BB-	love...)	1B-M	.	voice	.	124.538	B-:maj
4AA	You've	.	.	.	.	.	.	.	.
4BB-	got	2r	.	.	.	.	.	.	.
8C	the	.	.	.	.	.	.	.	.
[8D	ways	.	.	.	.	.	.	.	.
=95	=95	=95	=95	=95	=95	=95	=95	=95	=95
2.D_	_	4r	.	1B-M	newline	voice	.	125.864	B-:maj
.	.	4BB-	(you've	.	.	.	.	.	.
.	.	4AA	got	.	.	.	.	.	.
8D]	_	4GG	the	.	.	.	.	.	.
8r	.	.	.	.	.	.	.	.	.
=96	=96	=96	=96	=96	=96	=96	=96	=96	=96
4r	.	2FF	ways)	1FMm	.	voice	.	127.177	F:7
8FF	of	.	.	.	.	.	.	.	.
8FF	a	.	.	.	.	.	.	.	.
8AA	wo-	2r	.	.	.	.	.	.	.
8AA	-man	.	.	.	.	.	.	.	.
4C	in	.	.	.	.	.	.	.	.
=97	=97	=97	=97	=97	=97	=97	=97	=97	=97
2BB-	love.	2r	.	1B-M	.	voice	B	128.491	B-:maj
2r	.	2BB- 2F 2B- 2d	(In	.	.	.	.	.	.
=98	=98	=98	=98	=98	=98	=98	=98	=98	=98
1r	.	1BB-; 1F 1B- 1d	love...)	1B-M	.	voice	.	129.804	B-:maj
r;	.	1r	.	1r;	.	r	.	133.909	N.C.
r;	.	1r	.	1r;	.	r	.	136.725	N.C.
*-	*-	*-	*-	*-	*-	*-	*-	*-	*-
!!!BillboardChartDate: 1958/09/01
!!!BillboardPeak: 24
!!!BillboardWeeksOnChart: 11
!!!COC: Johnny Cash
!!!ENC: Nathaniel Condit-Schultz
!!!EST: Awating manual error checking and editing.
!!!OTL: The Ways Of A Woman In Love
!!!RDF**chordsym: original McGill chord annotation + (implied pitch class set, with bass pitch in first position)
!!!RDF**harmony: **recip + pitch class of root + harmonic quality
!!!RDF**leadinstrument: original McGill primary instrumentation annotation
!!!RDF**phrase: newline = linebreak in original McGill transcription
!!!RDF**timestamp: McGill audio timestamp in seconds
!!!RDT: 2017/01/12/
!!!SampleActualRank: 58
!!!SampleID#: 0787
!!!SampleTargetRank: 58
